packages/assets/static/images/icons/thumbs-down.svg

<svg width="24" height="24" viewBox="0 0 24 24" xmlns="http://www.w3.org/2000/svg">
<path d="M23.3544 14.6747L22.2294 5.67469C22.1501 5.03983 21.8417 4.45579 21.3621 4.03232C20.8825 3.60884 20.2648 3.37509 19.625 3.375H3.5C3.00272 3.375 2.52581 3.57254 2.17417 3.92417C1.82254 4.27581 1.625 4.75272 1.625 5.25V13.5C1.625 13.7462 1.6735 13.99 1.76773 14.2175C1.86195 14.445 2.00006 14.6517 2.17417 14.8258C2.34828 14.9999 2.55498 15.138 2.78247 15.2323C3.00995 15.3265 3.25377 15.375 3.5 15.375H7.30438L10.7441 22.2534C10.8375 22.4402 10.9811 22.5973 11.1588 22.707C11.3364 22.8168 11.5412 22.875 11.75 22.875C12.8436 22.8738 13.8921 22.4388 14.6654 21.6654C15.4388 20.8921 15.8738 19.8436 15.875 18.75V17.625H20.75C21.1222 17.6249 21.49 17.5458 21.8293 17.3927C22.1685 17.2396 22.4713 17.0162 22.7176 16.7372C22.9638 16.4582 23.148 16.13 23.2578 15.7744C23.3676 15.4188 23.4005 15.044 23.3544 14.6747ZM6.875 13.125H3.875V5.625H6.875V13.125ZM21.0312 15.2484C20.996 15.2883 20.9527 15.3202 20.9042 15.342C20.8557 15.3638 20.8032 15.375 20.75 15.375H14.75C14.4516 15.375 14.1655 15.4935 13.9545 15.7045C13.7435 15.9155 13.625 16.2016 13.625 16.5V18.75C13.625 19.1351 13.5064 19.5109 13.2853 19.8262C13.0642 20.1416 12.7514 20.3812 12.3894 20.5125L9.125 13.9847V5.625H19.625C19.7168 5.62428 19.8058 5.65729 19.8749 5.71777C19.944 5.77825 19.9885 5.862 20 5.95312L21.125 14.9531C21.1313 15.0062 21.1262 15.06 21.1101 15.1109C21.0939 15.1618 21.067 15.2087 21.0312 15.2484Z"/>
</svg>

<svg viewBox="0 0 24 24" xmlns="http://www.w3.org/2000/svg" aria-hidden="true" fill="currentColor" height="24px" width="24px"><path d="m23.354 14.675-1.125-9a2.625 2.625 0 0 0-2.604-2.3H3.5A1.875 1.875 0 0 0 1.625 5.25v8.25A1.875 1.875 0 0 0 3.5 15.375h3.804l3.44 6.878a1.12 1.12 0 0 0 1.006.622 4.13 4.13 0 0 0 4.125-4.125v-1.125h4.875a2.625 2.625 0 0 0 2.604-2.95m-16.479-1.55h-3v-7.5h3zm14.156 2.123a.37.37 0 0 1-.281.127h-6a1.125 1.125 0 0 0-1.125 1.125v2.25a1.87 1.87 0 0 1-1.236 1.762l-3.264-6.527v-8.36h10.5a.375.375 0 0 1 .375.328l1.125 9a.38.38 0 0 1-.094.295"/></svg>
